X:1
T:The Trip to Athlone
R:jig
M:6/8
L:1/8
K:D
|:ABA D2d|dcA AGE|ABA ABc|dAB cde|
|ABA D2d|dcA AGE|GFG Ade|1 fdc d2B:|2 fdc d2e|]
|:fed edc|Add cde|fed edc|ABc def|
|~g2g age|dcA AGE|GFG Ade|1 fdc d2e:|2 fdc d2B|]